public/images/hashed/ac85cedd418481ab62e8e40a93d8aa5e.svg

<?xml version="1.0" encoding="UTF-8"?>
<svg width="80px" height="80px" viewBox="0 0 80 80" version="1.1" xmlns="http://www.w3.org/2000/svg" xmlns:xlink="http://www.w3.org/1999/xlink">
    <!-- Generator: Sketch 64 (93537) - https://sketch.com -->
    <title>Icon-Architecture/64/Arch_AWS-App-Mesh_64</title>
    <desc>Created with Sketch.</desc>
    <defs>
        <linearGradient x1="0%" y1="100%" x2="100%" y2="0%" id="linearGradient-1">
            <stop stop-color="#4D27A8" offset="0%"></stop>
            <stop stop-color="#A166FF" offset="100%"></stop>
        </linearGradient>
    </defs>
    <g id="Icon-Architecture/64/Arch_AWS-App-Mesh_64" stroke="none" stroke-width="1" fill="none" fill-rule="evenodd">
        <g id="Icon-Architecture-BG/64/Networking-Content-Delivery" fill="url(#linearGradient-1)">
            <rect id="Rectangle" x="0" y="0" width="80" height="80"></rect>
        </g>
        <path d="M40.703,16.88075 C40.273,17.31075 39.574,17.31075 39.144,16.88075 C38.936,16.67275 38.821,16.39575 38.821,16.10075 C38.821,15.80675 38.936,15.52975 39.144,15.32075 C39.359,15.10675 39.641,14.99875 39.924,14.99875 C40.206,14.99875 40.488,15.10675 40.703,15.32075 L40.703,15.32175 C40.911,15.52975 41.026,15.80675 41.026,16.10075 C41.026,16.39575 40.911,16.67275 40.703,16.88075 L40.703,16.88075 Z M43.026,16.10075 C43.026,15.27175 42.703,14.49275 42.117,13.90675 L42.117,13.90675 C40.908,12.69775 38.939,12.69775 37.73,13.90675 C37.144,14.49275 36.821,15.27175 36.821,16.10075 C36.821,16.22975 36.843,16.35475 36.858,16.48075 L31.621,19.36075 L32.586,21.11275 L37.724,18.28675 C37.726,18.28975 37.728,18.29275 37.73,18.29475 C38.335,18.89975 39.13,19.20175 39.924,19.20175 C40.718,19.20175 41.513,18.89975 42.117,18.29575 C42.126,18.28675 42.132,18.27575 42.14,18.26675 L48.472,21.76175 L49.438,20.01075 L42.992,16.45275 C43.005,16.33575 43.026,16.22075 43.026,16.10075 L43.026,16.10075 Z M60.524,54.03275 C60.108,54.44875 59.382,54.44875 58.966,54.03175 C58.758,53.82375 58.642,53.54775 58.642,53.25375 C58.642,52.95875 58.758,52.68175 58.966,52.47375 C59.174,52.26575 59.45,52.15075 59.745,52.15075 C60.04,52.15075 60.316,52.26575 60.524,52.47375 L60.524,52.47375 C60.732,52.68175 60.848,52.95875 60.848,53.25275 C60.848,53.54775 60.732,53.82375 60.524,54.03275 L60.524,54.03275 Z M61.938,51.05875 C61.653,50.77375 61.314,50.56075 60.951,50.41475 L60.951,47.02075 L58.951,47.02075 L58.951,50.29075 C58.432,50.42075 57.941,50.66875 57.552,51.05875 C56.966,51.64475 56.642,52.42375 56.642,53.25375 C56.642,53.62875 56.717,53.98975 56.844,54.33175 L50.662,57.43975 L51.56,59.22675 L58.16,55.90875 C58.636,56.19375 59.176,56.35575 59.745,56.35575 C60.574,56.35575 61.353,56.03275 61.938,55.44675 C62.524,54.86075 62.848,54.08175 62.848,53.25275 C62.848,52.42375 62.524,51.64575 61.938,51.05975 L61.938,51.05875 Z M19.323,54.11475 C19.115,53.90675 19,53.63075 19,53.33575 C19,53.04075 19.115,52.76475 19.323,52.55575 C19.531,52.34775 19.807,52.23375 20.102,52.23375 C20.397,52.23375 20.674,52.34775 20.882,52.55575 L20.882,52.55675 C21.09,52.76475 21.205,53.04075 21.205,53.33575 C21.205,53.63075 21.09,53.90675 20.882,54.11475 C20.466,54.53075 19.739,54.53175 19.323,54.11475 L19.323,54.11475 Z M23.205,53.33575 C23.205,52.50675 22.882,51.72775 22.296,51.14175 C21.92,50.76575 21.45,50.52375 20.951,50.38875 L20.951,47.02075 L18.951,47.02075 L18.951,50.47475 C18.566,50.62175 18.209,50.84175 17.909,51.14175 C17.323,51.72775 17,52.50675 17,53.33575 C17,54.16475 17.323,54.94375 17.909,55.52875 C18.494,56.11475 19.273,56.43775 20.102,56.43775 C20.673,56.43775 21.215,56.27575 21.691,55.98875 L26.832,58.54175 L27.721,56.75075 L23.005,54.40875 C23.131,54.06875 23.205,53.70875 23.205,53.33575 L23.205,53.33575 Z M58.951,43.02075 L60.951,43.02075 L60.951,38.02075 L58.951,38.02075 L58.951,43.02075 Z M18.951,43.02075 L20.951,43.02075 L20.951,38.02075 L18.951,38.02075 L18.951,43.02075 Z M40.703,64.66475 C40.273,65.09475 39.574,65.09475 39.144,64.66475 C38.936,64.45675 38.821,64.17975 38.821,63.88475 C38.821,63.59075 38.936,63.31375 39.144,63.10575 C39.359,62.89075 39.641,62.78275 39.924,62.78275 C40.206,62.78275 40.488,62.89075 40.703,63.10575 L40.703,63.10575 C40.911,63.31375 41.026,63.59075 41.026,63.88475 C41.026,64.17975 40.911,64.45675 40.703,64.66475 L40.703,64.66475 Z M47.088,59.23575 L42.142,61.72175 C42.133,61.71275 42.127,61.70075 42.117,61.69175 L42.117,61.69075 C41.778,61.35175 41.377,61.11775 40.951,60.96875 L40.951,54.02075 L38.951,54.02075 L38.951,60.95275 C38.506,61.09975 38.084,61.33775 37.73,61.69075 C37.724,61.69775 37.72,61.70575 37.713,61.71275 L31.304,58.52975 L30.415,60.32075 L36.857,63.51975 C36.843,63.64075 36.821,63.76075 36.821,63.88475 C36.821,64.71375 37.144,65.49375 37.73,66.07875 C38.335,66.68375 39.13,66.98575 39.924,66.98575 C40.718,66.98575 41.513,66.68375 42.117,66.07975 C42.703,65.49375 43.026,64.71375 43.026,63.88475 C43.026,63.76575 43.005,63.65075 42.992,63.53375 L47.986,61.02275 L47.088,59.23575 Z M59.745,26.39275 C60.027,26.39275 60.309,26.49975 60.524,26.71475 L60.524,26.71475 C60.732,26.92275 60.848,27.19975 60.848,27.49475 C60.848,27.78875 60.732,28.06575 60.524,28.27475 C60.108,28.69075 59.382,28.69075 58.966,28.27375 C58.758,28.06575 58.642,27.78875 58.642,27.49475 C58.642,27.19975 58.758,26.92275 58.966,26.71475 C59.181,26.49975 59.463,26.39275 59.745,26.39275 L59.745,26.39275 Z M51.715,33.72975 L58.219,30.18175 C58.449,30.31275 58.694,30.41375 58.951,30.48175 L58.951,34.02075 L60.951,34.02075 L60.951,30.35275 C61.315,30.19875 61.65,29.97675 61.938,29.68875 C62.524,29.10275 62.848,28.32375 62.848,27.49475 C62.848,26.66575 62.524,25.88675 61.938,25.30075 L61.938,25.29975 C60.919,24.28075 59.363,24.13175 58.175,24.83175 L52.94,21.94275 L51.974,23.69375 L56.853,26.38675 C56.719,26.73575 56.642,27.10875 56.642,27.49475 C56.642,27.89475 56.722,28.28075 56.865,28.64175 L50.758,31.97375 L51.715,33.72975 Z M40.703,40.47875 C40.287,40.89475 39.56,40.89575 39.144,40.47875 C38.936,40.27075 38.821,39.99375 38.821,39.69875 C38.821,39.40475 38.936,39.12875 39.144,38.91975 C39.352,38.71175 39.629,38.59675 39.924,38.59675 C40.219,38.59675 40.495,38.71175 40.703,38.91975 L40.703,38.92075 C40.911,39.12875 41.026,39.40475 41.026,39.69875 C41.026,39.99375 40.911,40.27075 40.703,40.47875 L40.703,40.47875 Z M41.476,37.03775 C40.526,36.50575 39.32,36.50575 38.371,37.03775 L31.893,33.50375 L30.936,35.25875 L37.033,38.58575 C36.898,38.93675 36.821,39.31175 36.821,39.69875 C36.821,40.52775 37.144,41.30775 37.73,41.89275 C38.077,42.24075 38.498,42.48275 38.951,42.63175 L38.951,50.02075 L40.951,50.02075 L40.951,42.61575 C41.384,42.46375 41.784,42.22675 42.117,41.89375 C42.703,41.30775 43.026,40.52775 43.026,39.69875 C43.026,39.31175 42.949,38.93675 42.814,38.58575 L48.203,35.64575 L47.246,33.88975 L41.476,37.03775 Z M19.323,26.71475 C19.538,26.49975 19.82,26.39275 20.102,26.39275 C20.385,26.39275 20.667,26.49975 20.882,26.71475 L20.882,26.71475 C21.09,26.92275 21.205,27.19975 21.205,27.49475 C21.205,27.78875 21.09,28.06575 20.882,28.27475 C20.466,28.69075 19.739,28.69075 19.323,28.27375 C19.115,28.06575 19,27.78875 19,27.49475 C19,27.19975 19.115,26.92275 19.323,26.71475 L19.323,26.71475 Z M28.117,21.28875 L21.675,24.83275 C20.485,24.13075 18.93,24.27975 17.909,25.29975 C17.323,25.88575 17,26.66575 17,27.49475 C17,28.32375 17.323,29.10275 17.909,29.68875 C18.211,29.99075 18.565,30.21975 18.951,30.37375 L18.951,34.02075 L20.951,34.02075 L20.951,30.46475 C21.188,30.39775 21.414,30.30275 21.629,30.18075 L27.425,33.34375 L28.382,31.58775 L22.982,28.64175 C23.126,28.28075 23.205,27.89475 23.205,27.49475 C23.205,27.10975 23.129,26.73675 22.995,26.38775 L29.08,23.04075 L28.117,21.28875 Z" id="AWS-App-Mesh_Icon_64_Squid" fill="#FFFFFF"></path>
    </g>
</svg>

<svg xmlns="http://www.w3.org/2000/svg" width="80" height="80"><defs><linearGradient id="a" x1="0%" x2="100%" y1="100%" y2="0%"><stop offset="0%" stop-color="#4D27A8"/><stop offset="100%" stop-color="#A166FF"/></linearGradient></defs><g fill="none" fill-rule="evenodd"><path fill="url(#a)" d="M0 0h80v80H0z"/><path fill="#FFF" d="M40.703 16.88a1.103 1.103 0 1 1 0-1.56v.002c.208.208.323.485.323.779 0 .295-.115.572-.323.78Zm2.323-.78c0-.828-.323-1.607-.909-2.193a3.107 3.107 0 0 0-4.387 0 3.082 3.082 0 0 0-.909 2.194c0 .129.022.254.037.38l-5.237 2.88.965 1.752 5.138-2.826a3.093 3.093 0 0 0 2.2.915c.794 0 1.589-.302 2.193-.906.009-.01.015-.02.023-.03l6.332 3.496.966-1.751-6.446-3.558c.013-.117.034-.232.034-.352Zm17.498 37.933a1.128 1.128 0 0 1-1.558-.001 1.097 1.097 0 0 1 0-1.558c.208-.208.484-.323.779-.323.295 0 .571.115.779.323a1.096 1.096 0 0 1 0 1.559Zm1.414-2.974a2.94 2.94 0 0 0-.987-.644V47.02h-2v3.27c-.519.13-1.01.378-1.399.768a3.084 3.084 0 0 0-.91 2.195c0 .375.075.736.202 1.078l-6.182 3.108.898 1.787 6.6-3.318a3.074 3.074 0 0 0 3.778-.462c.586-.586.91-1.365.91-2.194 0-.83-.324-1.607-.91-2.193v-.001Zm-42.615 3.056a1.094 1.094 0 0 1-.323-.78 1.098 1.098 0 0 1 1.102-1.101c.295 0 .572.114.78.322.208.209.323.485.323.78 0 .295-.115.57-.323.779a1.129 1.129 0 0 1-1.559 0Zm3.882-.78c0-.828-.323-1.607-.909-2.193a2.98 2.98 0 0 0-1.345-.753V47.02h-2v3.454a2.953 2.953 0 0 0-1.042.667A3.082 3.082 0 0 0 17 53.336c0 .829.323 1.608.909 2.193a3.078 3.078 0 0 0 3.782.46l5.141 2.553.889-1.791-4.716-2.342c.126-.34.2-.7.2-1.073Zm35.746-10.314h2v-5h-2v5Zm-40 0h2v-5h-2v5Zm21.752 21.644a1.103 1.103 0 1 1 0-1.56c.208.209.323.486.323.78 0 .295-.115.572-.323.78Zm6.385-5.43-4.946 2.487c-.009-.01-.015-.021-.025-.03v-.001a3.062 3.062 0 0 0-1.166-.722V54.02h-2v6.932a3.079 3.079 0 0 0-1.221.738c-.006.007-.01.015-.017.022l-6.409-3.183-.889 1.79 6.442 3.2c-.014.12-.036.24-.036.365 0 .829.323 1.609.909 2.194.605.605 1.4.907 2.194.907s1.589-.302 2.193-.906a3.085 3.085 0 0 0 .909-2.195c0-.12-.021-.234-.034-.351l4.994-2.511-.898-1.787Zm12.657-32.842c.282 0 .564.107.779.322a1.097 1.097 0 0 1 0 1.56 1.128 1.128 0 0 1-1.558-.001 1.096 1.096 0 0 1 0-1.56c.215-.214.497-.321.779-.321Zm-8.03 7.337 6.504-3.548c.23.13.475.232.732.3v3.539h2v-3.668a3.1 3.1 0 0 0 1.897-2.858c0-.83-.324-1.608-.91-2.194V25.3a3.1 3.1 0 0 0-3.763-.468l-5.235-2.89-.966 1.752 4.879 2.693a3.086 3.086 0 0 0-.211 1.108c0 .4.08.786.223 1.147l-6.107 3.332.957 1.756Zm-11.012 6.749a1.129 1.129 0 0 1-1.559 0 1.096 1.096 0 0 1-.323-.78c0-.294.115-.57.323-.78.208-.207.485-.322.78-.322.295 0 .571.115.779.323.208.209.323.485.323.779 0 .295-.115.572-.323.78Zm.773-3.441a3.22 3.22 0 0 0-3.105 0l-6.478-3.534-.957 1.755 6.097 3.327a3.08 3.08 0 0 0 .697 3.307c.347.348.768.59 1.221.739v7.389h2v-7.405a3.074 3.074 0 0 0 1.166-.722 3.085 3.085 0 0 0 .697-3.308l5.389-2.94-.957-1.756-5.77 3.148ZM19.323 26.715c.215-.215.497-.322.779-.322.283 0 .565.107.78.322a1.1 1.1 0 0 1 0 1.56 1.129 1.129 0 0 1-1.559-.001 1.095 1.095 0 0 1-.323-.78c0-.294.115-.571.323-.78Zm8.794-5.426-6.442 3.544a3.1 3.1 0 0 0-3.766.467A3.085 3.085 0 0 0 17 27.495c0 .829.323 1.608.909 2.194.302.302.656.53 1.042.685v3.647h2v-3.556c.237-.067.463-.162.678-.284l5.796 3.163.957-1.756-5.4-2.946c.144-.361.223-.747.223-1.147 0-.385-.076-.758-.21-1.107l6.085-3.347-.963-1.752Z"/></g></svg>
